X:1
T:Wash Your Hands
T:Wash Your Hands!
T:David Saphra
T:phonecomposer.com
L:1/8
Q:1/4=133
M:4/4
K:D
V:1 treble nm="Violin"
V:1
"Em""^Swing" E2 E2"A" G F2"D" D- | DF- F2 z z2 D |"Em" E2 E2"A" G F2"D" D- | D6 z2 | %4
w: We're so well & hap-|* py * We|al- ways wash our hands||
"Em" E2 F2 G E3 |"F#m" F G2 A- A2 z2 |"E7" ^G2 A2 B G3 |"A" A B2 c- c z A2 |"G" G2 F2 E2 D2 | %9
w: Learn this les- son,|Learn it quick *|If you don't want|to get sick * It's|such a sim- ple|
"A" (E3 A-) A2 z2 ||"D" F2 GA- A2 z2 |"A7" G2 FE- E2 z2 |"D" F2 E2"Bm" D2 B,2 | %13
w: tri- ck *|Wash your hands *|Wash your hands *|Make those germs all|
"Em" B2 F"A"A- (A B2) z |"D" F2 GA- A2 z2 |"C" G2 FE- E2 z2 |"D" F E3"Gm" D2 E"D"D- | D6 z2 |] %18
w: go a- wa- * y|Wash your hands *|Wash your hands *|Do it ev'- ry day||

